frontend/public/svg/files/file-mp4.svg

<svg width="142" height="175" viewBox="0 0 142 175" fill="none" xmlns="http://www.w3.org/2000/svg">
<g clip-path="url(#clip0)">
<path d="M140.801 92.6255C140.98 109.13 141.22 125.634 141.307 142.138C141.337 147.972 140.88 153.806 140.847 159.641C140.798 168.009 134.316 173.096 126.705 173.261C111.103 173.595 95.4958 173.959 79.8934 173.881C61.8144 173.792 43.7363 173.31 25.6621 172.838C21.4024 172.621 17.1583 172.168 12.949 171.479C7.81647 170.768 2.72765 164.894 2.53994 159.305C2.06541 145.171 1.53378 131.034 1.37757 116.894C1.03562 85.7832 0.968045 54.6729 0.637907 23.5658C0.586712 18.7896 0.691031 14.1577 2.66333 9.73332C4.13746 6.42603 6.23079 3.72724 9.89909 2.72895C11.1965 2.38654 12.5281 2.19019 13.8691 2.14441C19.5898 1.91534 25.3215 1.89726 31.0342 1.55793C50.7966 0.384398 70.555 0.811751 90.3167 1.47268C93.1212 1.56654 95.929 1.70832 98.7309 1.63613C99.7417 1.62913 100.744 1.82333 101.679 2.20722C102.614 2.59111 103.464 3.15718 104.179 3.87242C114.341 12.8892 124.431 21.987 134.702 30.8803C138.246 33.9494 139.485 37.5156 139.532 42.1041C139.706 58.9464 140.17 75.7859 140.525 92.6262L140.801 92.6255ZM130.176 45.2422C129.732 45.1565 129.283 45.0972 128.831 45.0641C121.874 45.2019 114.917 45.3924 107.955 45.4665C106.273 45.4707 104.595 45.2927 102.951 44.9365C97.8009 43.8568 96.3773 42.2211 95.9238 37.013C95.3331 30.1956 94.8008 23.3723 94.1983 16.5556C94.0014 14.349 93.6666 12.1585 93.3805 9.84096C92.0402 9.70969 90.9389 9.51968 89.8363 9.49934C75.1343 9.22892 60.4298 8.97426 45.723 8.73536C39.2167 8.63297 32.71 8.58558 26.203 8.54817C22.9542 8.52914 19.6947 8.43613 16.4583 8.65076C12.2859 8.92773 10.9253 10.1867 10.1574 14.3052C9.37822 18.274 9.13708 22.3297 9.44011 26.3629C9.77419 30.3843 9.92246 34.4296 9.95002 38.4654C10.0411 51.713 10.0814 64.9605 10.0709 78.2084C10.0901 103.355 10.1041 128.502 10.1128 153.649C10.0627 155.218 10.262 156.785 10.7034 158.291C12.3705 163.247 14.7269 164.409 18.3827 164.588C20.6254 164.697 22.8713 164.779 25.116 164.794C45.0982 164.93 65.0797 165.111 85.062 165.147C95.952 165.166 106.842 164.928 117.732 164.811C120.311 164.783 122.897 164.883 125.469 164.735C129.725 164.491 132.125 162.056 132.083 157.883C132.035 153.288 131.689 148.694 131.577 144.099C131.311 133.105 131.319 122.1 130.834 111.117C129.904 90.0179 130.059 68.914 130.171 47.8099C130.179 47.0321 130.176 46.2549 130.176 45.2422ZM102.159 14.6776C103.394 22.7506 104.502 29.9827 105.63 37.354L125.733 36.0855L102.159 14.6776Z" fill="black"/>
<path d="M44.7473 122.501C43.8448 124.756 43.2305 126.551 42.4232 128.256C40.2697 132.803 36.5937 133.371 33.0922 129.747C31.4572 128.054 29.855 126.329 28.2273 124.628C28.1741 124.572 28.0106 124.621 27.6181 124.621C27.6181 125.676 27.622 126.738 27.6181 127.8C27.5997 131.727 27.6183 135.654 27.5264 139.579C27.4711 140.47 27.2431 141.342 26.855 142.146C26.5849 142.772 26.1196 143.293 25.5289 143.634C24.9381 143.974 24.2535 144.115 23.5766 144.034C22.8391 144.056 22.1148 143.836 21.5143 143.407C20.9137 142.979 20.4701 142.365 20.251 141.661C19.9889 140.919 19.8421 140.14 19.8157 139.353C19.714 133.526 19.6226 127.698 19.6187 121.87C19.6211 120.185 19.7825 118.505 20.1 116.851C20.2982 115.762 20.7305 114.73 21.3672 113.826C22.735 111.97 24.0096 111.561 26.016 112.719C28.7136 114.276 31.2241 116.165 33.7661 117.981C34.6777 118.719 35.5453 119.511 36.3645 120.351C37.8695 117.472 39.2336 114.809 40.6513 112.174C41.2022 111.071 41.8533 110.02 42.5966 109.036C44.9075 106.172 48.4786 106.25 50.5297 109.285C51.4063 110.588 52.054 112.03 52.4448 113.551C54.2563 120.715 56.0468 127.888 57.584 135.114C57.8868 136.987 57.7289 138.906 57.1244 140.704C56.2443 143.586 53.0895 144.438 50.9918 142.279C49.527 140.758 48.4541 138.902 47.8655 136.874C46.6244 132.344 45.8401 127.693 44.7473 122.501Z" fill="black"/>
<path d="M99.8728 121.417H105.572C105.748 119.879 106 118.351 106.328 116.838C106.91 114.635 108.367 113.455 110.299 113.335C112.395 113.204 113.95 114.319 114.789 116.62C115.03 117.244 115.184 117.896 115.249 118.561C115.692 124.367 116.182 130.171 116.472 135.985C116.514 137.989 116.323 139.992 115.905 141.953C115.557 143.832 114.037 144.78 112.283 144.977C111.437 145.108 110.572 144.953 109.824 144.538C109.075 144.123 108.486 143.471 108.149 142.684C107.413 140.938 106.861 139.122 106.501 137.262C106.097 135.311 105.971 133.302 105.679 130.967H98.6382C97.5238 131.049 96.4047 131.04 95.2909 130.94C92.1215 130.411 90.3802 127.79 91.3864 124.792C92.892 120.1 93.8365 115.247 94.2007 110.333C94.3793 108.314 95.4235 107.172 96.962 107.075C98.4637 106.979 99.8137 107.983 100.153 109.944C100.427 111.823 100.517 113.725 100.422 115.621C100.381 117.398 100.097 119.169 99.8728 121.417Z" fill="black"/>
<path d="M72.0767 132.448C71.8798 135.278 71.8142 137.741 71.4985 140.171C71.211 142.393 69.8879 143.705 68.2017 143.847C66.4171 144.001 64.8544 142.731 64.305 140.4C63.9702 138.983 63.8123 137.529 63.8346 136.073C63.9737 128.56 64.1982 121.05 64.3938 113.539C64.443 111.646 64.7875 109.966 66.958 109.316C67.4588 109.065 67.9057 108.718 68.2739 108.297C72.1279 104.975 76.3653 104.687 80.7817 106.913C84.7244 108.899 87.0951 113.844 86.589 118.577C85.9688 124.371 80.8303 130.259 75.0683 131.759C74.1055 132.014 73.1249 132.209 72.0767 132.448ZM71.4257 124.31C73.9814 123.889 76.2911 122.538 77.909 120.515C79.958 118.006 80.0598 114.956 78.2371 112.88C76.4493 110.846 73.7445 110.789 70.9688 112.618C70.9688 115.496 70.9341 118.262 70.9879 121.025C71.0745 122.126 71.2209 123.222 71.4257 124.308V124.31Z" fill="black"/>
</g>
<defs>
<clipPath id="clip0">
<rect width="141.769" height="173.93" fill="white" transform="translate(0.00488281 0.574219)"/>
</clipPath>
</defs>
</svg>

<svg xmlns="http://www.w3.org/2000/svg" width="142" height="175" fill="none" viewBox="0 0 142 175"><g fill="#000" clip-path="url(#a)"><path d="M140.801 92.626c.179 16.504.419 33.008.506 49.512.03 5.834-.427 11.668-.46 17.503-.049 8.368-6.531 13.455-14.142 13.62-15.602.334-31.21.698-46.812.62-18.079-.089-36.157-.571-54.23-1.043-4.26-.217-8.505-.67-12.714-1.359-5.133-.711-10.221-6.585-10.41-12.174-.474-14.134-1.005-28.271-1.161-42.411-.342-31.11-.41-62.221-.74-93.328C.587 18.79.69 14.158 2.663 9.733 4.137 6.426 6.231 3.727 9.9 2.73a18 18 0 0 1 3.97-.585c5.72-.229 11.453-.247 17.165-.586C50.797.384 70.555.812 90.317 1.473c2.804.094 5.612.235 8.414.163a7.62 7.62 0 0 1 5.448 2.236c10.162 9.017 20.252 18.115 30.523 27.008 3.544 3.07 4.783 6.636 4.83 11.224.174 16.842.638 33.682.993 50.522zm-10.625-47.384a12 12 0 0 0-1.345-.178c-6.957.138-13.914.328-20.876.403a23.4 23.4 0 0 1-5.004-.53c-5.15-1.08-6.574-2.716-7.027-7.924-.59-6.817-1.123-13.64-1.726-20.457-.197-2.207-.531-4.398-.817-6.715-1.34-.131-2.442-.321-3.545-.342q-22.053-.405-44.113-.764c-6.506-.102-13.013-.15-19.52-.187-3.249-.019-6.508-.112-9.745.103-4.172.277-5.533 1.536-6.3 5.654a45 45 0 0 0-.718 12.058c.334 4.021.482 8.067.51 12.102q.136 19.871.12 39.743.03 37.72.043 75.441c-.05 1.569.149 3.136.59 4.642 1.668 4.956 4.024 6.118 7.68 6.297 2.242.109 4.488.191 6.733.206 19.982.136 39.964.317 59.946.353 10.89.019 21.78-.219 32.67-.336 2.579-.028 5.165.072 7.737-.076 4.256-.244 6.656-2.679 6.614-6.852-.048-4.595-.394-9.189-.506-13.784-.266-10.994-.258-21.999-.743-32.982-.93-21.1-.775-42.203-.663-63.307.008-.778.005-1.555.005-2.568m-28.017-30.564 3.471 22.676 20.103-1.268z"/><path d="M44.747 122.501c-.902 2.255-1.517 4.05-2.324 5.755-2.153 4.547-5.83 5.115-9.33 1.491-1.636-1.693-3.238-3.418-4.866-5.119-.053-.056-.216-.007-.609-.007 0 1.055.004 2.117 0 3.179-.018 3.927 0 7.854-.092 11.779a6.9 6.9 0 0 1-.671 2.567 3.17 3.17 0 0 1-3.278 1.888 3.374 3.374 0 0 1-3.326-2.373 7.7 7.7 0 0 1-.435-2.308c-.102-5.827-.193-11.655-.197-17.483.002-1.685.163-3.365.481-5.019a7.6 7.6 0 0 1 1.267-3.025c1.368-1.856 2.643-2.265 4.649-1.107 2.698 1.557 5.208 3.446 7.75 5.262q1.37 1.109 2.599 2.37c1.505-2.879 2.869-5.542 4.286-8.177a20 20 0 0 1 1.946-3.138c2.31-2.864 5.882-2.786 7.933.249a13.8 13.8 0 0 1 1.915 4.266c1.811 7.164 3.602 14.337 5.139 21.563a11.7 11.7 0 0 1-.46 5.59c-.88 2.882-4.035 3.734-6.132 1.575a13 13 0 0 1-3.126-5.405c-1.242-4.53-2.026-9.181-3.119-14.373m55.126-1.084h5.699q.264-2.308.756-4.579c.582-2.203 2.039-3.383 3.971-3.503 2.096-.131 3.651.984 4.49 3.285.241.624.395 1.276.46 1.941.443 5.806.933 11.61 1.223 17.424a26 26 0 0 1-.567 5.968c-.348 1.879-1.868 2.827-3.622 3.024a3.85 3.85 0 0 1-4.134-2.293 27.3 27.3 0 0 1-1.648-5.422c-.404-1.951-.53-3.96-.822-6.295h-7.04a20.6 20.6 0 0 1-3.348-.027c-3.17-.529-4.91-3.15-3.905-6.148a62.4 62.4 0 0 0 2.815-14.459c.178-2.019 1.223-3.161 2.761-3.258 1.502-.096 2.852.908 3.191 2.869.274 1.879.364 3.781.269 5.677-.041 1.777-.325 3.548-.55 5.796m-27.795 11.031c-.197 2.83-.263 5.293-.578 7.723-.288 2.222-1.611 3.534-3.297 3.676-1.785.154-3.348-1.116-3.897-3.447a17.7 17.7 0 0 1-.47-4.327c.139-7.513.363-15.023.559-22.534.049-1.893.393-3.573 2.564-4.223a4.3 4.3 0 0 0 1.316-1.019c3.854-3.322 8.091-3.61 12.508-1.384 3.942 1.986 6.313 6.931 5.807 11.664-.62 5.794-5.759 11.682-11.52 13.182-.963.255-1.944.45-2.992.689m-.651-8.138a10.48 10.48 0 0 0 6.483-3.795c2.049-2.509 2.15-5.559.328-7.635-1.788-2.034-4.492-2.091-7.268-.262 0 2.878-.035 5.644.019 8.407q.13 1.653.438 3.283z"/></g><defs><clipPath id="a"><path fill="#fff" d="M.005.574h141.769v173.93H.004z"/></clipPath></defs></svg>
